X: 20211
Q: "Moderate."
M: 6/8
L: 1/8
K: G
(GB).d (ed).B |(GB).d (e2g) | (GB).d edB | AGB A2D |\
|: d |\
(gf)g (ef)g | abg f2d | efg (ag)a | bge e2(g/a/) !p!|\
(ba).g (ag).f | (gf)e (de).f | (gf).e dcB | AGA G2 :|


